X: 2070
Q: "Strathspey."
M: C
L: 1/8
K: Am
ua |\
vg<ee>ud vc>vdue>a | vg<ee>ud vc<AA>ua |\
vg<ee>ud vc>vdue>ug | ve<aa>u^g a<A A ::\
uB |\
vc2uc>ue vd2ud>ue | c2c>e d>BG>B |\
c2c>e d2d>f | e<aa>^g a<A A :|
|: uc |\
uB, |\


